public/Images/info-icon.svg

<svg width="16" height="16" viewBox="0 0 16 16" fill="none" xmlns="http://www.w3.org/2000/svg">
<path fill-rule="evenodd" clip-rule="evenodd" d="M1.37143 8C1.37143 4.33914 4.33914 1.37143 8 1.37143C11.6609 1.37143 14.6286 4.33914 14.6286 8C14.6286 11.6609 11.6609 14.6286 8 14.6286C4.33914 14.6286 1.37143 11.6609 1.37143 8ZM8 0C3.58172 0 0 3.58172 0 8C0 12.4183 3.58172 16 8 16C12.4183 16 16 12.4183 16 8C16 3.58172 12.4183 0 8 0ZM8.17779 5.75025C7.98985 5.87583 7.76889 5.94286 7.54286 5.94286C7.23975 5.94286 6.94906 5.82245 6.73474 5.60812C6.52041 5.39379 6.4 5.1031 6.4 4.8C6.4 4.57396 6.46703 4.353 6.59261 4.16506C6.71819 3.97712 6.89668 3.83064 7.10551 3.74414C7.31433 3.65764 7.54412 3.635 7.76582 3.6791C7.98751 3.7232 8.19115 3.83205 8.35098 3.99188C8.51081 4.15171 8.61966 4.35535 8.66375 4.57704C8.70785 4.79873 8.68522 5.02852 8.59872 5.23735C8.51222 5.44618 8.36574 5.62467 8.17779 5.75025ZM7.45539 4.58883C7.44162 4.59453 7.42838 4.60159 7.41587 4.60995C7.39079 4.62671 7.3694 4.64818 7.35281 4.67301C7.34453 4.6854 7.33744 4.69863 7.33169 4.71253C7.32014 4.7404 7.31429 4.77013 7.31429 4.8C7.31429 4.8149 7.31574 4.82984 7.31868 4.84459C7.3275 4.88893 7.34926 4.92966 7.38123 4.96163C7.4132 4.99359 7.45393 5.01536 7.49827 5.02418C7.51302 5.02711 7.52796 5.02857 7.54286 5.02857C7.57273 5.02857 7.60246 5.02272 7.63033 5.01117C7.64423 5.00542 7.65746 4.99833 7.66985 4.99005C7.69468 4.97345 7.71615 4.95207 7.73291 4.92699C7.74127 4.91448 7.74833 4.90124 7.75403 4.88747C7.76546 4.85987 7.77143 4.83016 7.77143 4.8C7.77143 4.78492 7.76994 4.76999 7.76704 4.75541C7.75828 4.71139 7.73668 4.67058 7.70448 4.63838C7.67228 4.60618 7.63146 4.58458 7.58745 4.57582C7.57287 4.57292 7.55794 4.57143 7.54286 4.57143C7.51269 4.57143 7.48299 4.5774 7.45539 4.58883ZM6.33903 7.02478C6.33903 6.64607 6.64604 6.33906 7.02475 6.33906H7.51237C7.82356 6.33906 8.122 6.46268 8.34204 6.68272C8.56208 6.90277 8.6857 7.20121 8.6857 7.5124V9.95049C8.6857 10.0273 8.7162 10.1009 8.7705 10.1552C8.8248 10.2095 8.89844 10.24 8.97523 10.24H9.46284C9.84155 10.24 10.1486 10.547 10.1486 10.9257C10.1486 11.3044 9.84155 11.6114 9.46284 11.6114H8.97523C8.53471 11.6114 8.11224 11.4365 7.80075 11.125C7.48927 10.8135 7.31427 10.391 7.31427 9.95049V7.71049H7.02475C6.64604 7.71049 6.33903 7.40349 6.33903 7.02478Z" fill="#111111"/>
</svg>

<svg xmlns="http://www.w3.org/2000/svg" width="16" height="16" fill="none" viewBox="0 0 16 16"><path fill="#111" fill-rule="evenodd" d="M1.371 8A6.629 6.629 0 1114.63 8 6.629 6.629 0 011.37 8zM8 0a8 8 0 100 16A8 8 0 008 0zm.178 5.75a1.143 1.143 0 11-1.27-1.9 1.143 1.143 0 011.27 1.9zm-.723-1.16a.228.228 0 10.175.422.228.228 0 00-.175-.422zM6.34 7.025c0-.379.307-.686.686-.686h.487a1.173 1.173 0 011.174 1.173V9.95a.29.29 0 00.29.29h.487a.686.686 0 110 1.371h-.488a1.66 1.66 0 01-1.66-1.66V7.71h-.29a.686.686 0 01-.686-.686z" clip-rule="evenodd"></path></svg>
